src/assets/images/position.svg

<svg fill="none" height="30" viewBox="0 0 30 30" width="30" xmlns="http://www.w3.org/2000/svg" xmlns:xlink="http://www.w3.org/1999/xlink"><clipPath id="a"><path d="m0 0h30v30h-30z"/></clipPath><g clip-path="url(#a)" fill="#5a57c6"><path d="m12 12.9919c0-.7956.3161-1.5587.8787-2.1213s1.3257-.87866 2.1213-.87866 1.5587.31606 2.1213.87866.8787 1.3257.8787 2.1213c0 .7957-.3161 1.5588-.8787 2.1214s-1.3257.8786-2.1213.8786-1.5587-.316-2.1213-.8786-.8787-1.3257-.8787-2.1214z"/><path clip-rule="evenodd" d="m2 12.992c.00159-3.44659 1.372-6.75144 3.80985-9.1878 2.43786-2.43636 5.74355-3.80473054 9.19015-3.80419985 7.178 0 13 5.81799985 13 12.99199985 0 5.348-2.676 9.586-5.544 12.45-1.2678 1.2733-2.6887 2.3845-4.23 3.308-.644.38-1.246.68-1.77.884-.494.196-1.012.348-1.456.348s-.962-.152-1.456-.348c-.6118-.2489-1.2035-.5445-1.77-.884-1.5413-.9236-2.96215-2.0347-4.23-3.308-2.868-2.864-5.544-7.102-5.544-12.45zm13-4.998c-1.3261 0-2.5979.52678-3.5355 1.46447-.9377.93763-1.4645 2.20943-1.4645 3.53553s.5268 2.5979 1.4645 3.5355c.9376.9377 2.2094 1.4645 3.5355 1.4645s2.5979-.5268 3.5355-1.4645c.9377-.9376 1.4645-2.2094 1.4645-3.5355s-.5268-2.5979-1.4645-3.53553c-.9376-.93769-2.2094-1.46447-3.5355-1.46447z" fill-rule="evenodd"/></g></svg>

<svg width="30" height="30" viewBox="0 0 30 30" fill="none" xmlns="http://www.w3.org/2000/svg">
<g clip-path="url(#clip0_153_632)">
<path d="M12 12.9919C12 12.1963 12.3161 11.4332 12.8787 10.8706C13.4413 10.308 14.2044 9.99194 15 9.99194C15.7956 9.99194 16.5587 10.308 17.1213 10.8706C17.6839 11.4332 18 12.1963 18 12.9919C18 13.7876 17.6839 14.5507 17.1213 15.1133C16.5587 15.6759 15.7956 15.9919 15 15.9919C14.2044 15.9919 13.4413 15.6759 12.8787 15.1133C12.3161 14.5507 12 13.7876 12 12.9919Z" fill="#5A57C6"/>
<path fill-rule="evenodd" clip-rule="evenodd" d="M2 12.992C2.00159 9.54541 3.372 6.24056 5.80985 3.8042C8.24771 1.36784 11.5534 -0.000530539 15 1.54306e-07C22.178 1.54306e-07 28 5.818 28 12.992C28 18.34 25.324 22.578 22.456 25.442C21.1882 26.7153 19.7673 27.8265 18.226 28.75C17.582 29.13 16.98 29.43 16.456 29.634C15.962 29.83 15.444 29.982 15 29.982C14.556 29.982 14.038 29.83 13.544 29.634C12.9322 29.3851 12.3405 29.0895 11.774 28.75C10.2327 27.8264 8.81185 26.7153 7.544 25.442C4.676 22.578 2 18.34 2 12.992ZM15 7.994C13.6739 7.994 12.4021 8.52078 11.4645 9.45847C10.5268 10.3961 10 11.6679 10 12.994C10 14.3201 10.5268 15.5919 11.4645 16.5295C12.4021 17.4672 13.6739 17.994 15 17.994C16.3261 17.994 17.5979 17.4672 18.5355 16.5295C19.4732 15.5919 20 14.3201 20 12.994C20 11.6679 19.4732 10.3961 18.5355 9.45847C17.5979 8.52078 16.3261 7.994 15 7.994Z" fill="#5A57C6"/>
</g>
<defs>
<clipPath id="clip0_153_632">
<rect width="30" height="30" fill="white"/>
</clipPath>
</defs>
</svg>
